X: 21703
T: Kilty Town
R: reel
M: 4/4
K: Gmajor
BG~G2 dz cA|B/c/d cA BGGB|AD~D2 cD~D2|~B3 d cAdc|
BG~G2 d2 cA|BdcA BAGA|DFAd ~f2 eg|1 fdcA G3A:|2 fdcA G4||
|:~g3 a gB~B2|eBgB eB ~B2|dega bgag|ea ~a2 agef|
g2bg ~f2 af|egfd edBd|c2 ec BcdB|1 AGAB cded:|2 AGAB cdef||
~g3 d BG ~G2|FGAB cABA|GB ~B2 GABc|d2 AG FDEF|
G2 BG ~F2 AF|EGFD EDB,D|C2 EC B,CDE|FGAB cdef|
g3 d BG ~G2|FGAB cABA|GB ~B2 GABc|d2 AG FDEF|
G2 BG ~F2 AF|EGFD EDB,D|C2 EC B,CDB,|A,B,CD EFGA||

